X:1
T:Atte katte nuwa
T:Atte katte nuwa
L:1/8
M:2/4
K:G
V:1 treble nm="Piano" snm="Pno."
V:1
 GG GG | G2 B2 | AA AA | A2 c2 | B2 BB | A2 AA | GG GG | G2 z2 :| z2 BB | BB BB | d4 | c4 | z2 AA | %13
 AA AA | c4 | B4 | GG GG | G2 B2 | AA AA | A2 c2 | B2 BB | A2 AA | GG GG | G4 |] %24

